svg/Octicons/circuit-board.svg

<svg xmlns="http://www.w3.org/2000/svg" viewBox="0 0 1024 1024"><path d="m320 256c35.35 0 64 28.654 64 64 0 35.35-28.654 64-64 64s-64-28.654-64-64c0-35.35 28.654-64 64-64m640 512c0 106.04-85.961 192-192 192h-448l192-192h81.13c22.13 38.26 63.49 64 110.87 64 70.69 0 128-57.31 128-128s-57.31-128-128-128c-47.38 0-88.74 25.742-110.87 64h-145.13l-291.96 291.96c-55.2-33.724-92.04-94.54-92.04-163.96v-512c0-106.04 85.961-192 192-192v145.13c-38.26 22.13-64 63.5-64 110.87 0 70.69 57.31 128 128 128 47.28 0 88.56-25.633 110.73-63.756l162.42-.219c22.14 38.24 63.49 63.975 110.86 63.975 70.69 0 128-57.31 128-128s-57.31-128-128-128c-47.39 0-88.76 25.753-110.89 64.02l-162.1.219c-11.246-19.54-27.503-35.828-47.02-47.12v-145.13h384c106.04 0 192 85.961 192 192v512m-320-64c0-35.35 28.654-64 64-64s64 28.654 64 64c0 35.35-28.654 64-64 64s-64-28.654-64-64m0-384c0-35.35 28.654-64 64-64s64 28.654 64 64c0 35.35-28.654 64-64 64s-64-28.654-64-64"/></svg>

<svg height="1024" width="1024" xmlns="http://www.w3.org/2000/svg">
  <path d="M320 256c35.346 0 64 28.654 64 64 0 35.346-28.654 64-64 64s-64-28.654-64-64C256 284.654 284.654 256 320 256zM960 768c0 106.039-85.961 192-192 192H320l192-192h81.128c22.132 38.258 63.494 64 110.872 64 70.692 0 128-57.308 128-128s-57.308-128-128-128c-47.377 0-88.74 25.742-110.872 64H448L156.044 931.956C100.845 898.232 64 837.42 64 768V256c0-106.039 85.961-192 192-192v145.128C217.742 231.26 192 272.62300000000005 192 320c0 70.692 57.308 128 128 128 47.276 0 88.56-25.633 110.727-63.756l162.416-0.219C615.279 422.269 656.633 448 704 448c70.692 0 128-57.308 128-128s-57.308-128-128-128c-47.388 0-88.758 25.753-110.887 64.025l-162.097 0.219c-11.246-19.54-27.503-35.828-47.016-47.116V64h384c106.039 0 192 85.961 192 192V768zM640 704c0-35.346 28.654-64 64-64s64 28.654 64 64c0 35.346-28.654 64-64 64S640 739.346 640 704zM640 320c0-35.346 28.654-64 64-64s64 28.654 64 64c0 35.346-28.654 64-64 64S640 355.346 640 320z" />
</svg>
